X:1
T:Title
%%score { ( 1 3 ) | 2 }
L:1/8
Q:1/4=120
M:6/8
K:C
V:1 treble nm="Piano"
V:3 treble 
V:2 bass 
V:1
 e2 d e2 f | e2 d c B2 | c2 B c d2 | e3- ecd | e2 d e2 f2 | g2 f e2 d | !fermata!c3 cAB | %7
 c2 B c d2 | c B2- BAB | c2 B c d2 | c3 !fermata!BAB | c2 B c d2 | c2 B- BA^G | (A6 | A6) | %15
 A,3- A,A,B, | C2 B, C2 D | E6 | z6 | z3 z DE | [DF]2 E x3 [_B,D] C2 | D6 | z6 | z DE FED | %24
 CDB, [^F,D]3 || z6 | z6 ||[K:Bb] z6 | z6 | G6 | GDB, E B,2 | B,2 C/B,/ A,2 G, | DDA, D z2 | z6 | %34
 z6 | z6 | A,2 A, A,2 A, x | A,2 B, A,2 A, | C2 C C2 B, | A,6 |[K:treble] G2 G A2 B | A3 F3 x | %42
 F3 c2 ^E2 D | C/=B,/C/D/C/D/ =E/D/E/F/E/F/ | G/_A/=A/c/d/e/ =e/g/a/b/a/g/ | c'8 |] %46
V:2
 z6 | z6 | z6 | z6 | z7 | z6 | z6 | F6 | E6 | D3 ^F3 | _E3 =E3 | F3 ^F3 | ^G2- x G2 z | F3 D3 | %14
 E3 D3 | A,,6 | z6 | z6 | z6 | z6 | _B,3 F,3 x3 | D,,6 | z6 | z3 [C,G,]2 [_B,,F,]- | %24
 [B,,F,] G,,2 [D,,D,]3 || z6 | z6 ||[K:Bb] z6 | z6 | E,6 | z6 | z6 | z3 z A,^F, | D,,6 | z6 | z6 | %36
 A,,3- A,,2 A,,2 | D,,3- D,,2 D,, | [=E,,C,]3- [E,,C,]2 [E,,C,] | [F,,C,]6 | G,,D,G, G,,D,G, | %41
 F,,C,F, D,,A,,D, x | B,,F,B, x2 B,,F,B, | z6 | z6 | z8 |] %46
V:3
 x6 | x6 | x6 | x6 | x7 | x6 | x6 | x6 | x6 | x6 | x6 | x6 | x6 | x6 | x6 | x6 | x6 | x6 | x6 | %19
 x6 | x9 | x6 | x6 | x6 | x6 || x6 | x6 ||[K:Bb] x6 | x6 | x6 | x6 | x6 | x6 | x6 | x6 | x6 | x7 | %37
 x6 | x6 | x6 |[K:treble] x6 | x3 e4 | x8 | x6 | x6 | x8 |] %46

